X: 35374
T: Roslyn Castle
R: reel
M: 4/4
K: Eminor
G4 F2|E6|B4 c2|B6|A4 B2|c4 B2|A4 G2|F6|
G4 F2|E6|e4 f2|g6|f4 e2|^d4 e2|f4 ^d2|B6|
A4 B2|c4 B2|A4 G2|F6|G4 A2|B4 G2|F4 E2|^d6|
e4 f2|g4 e2|f4 ^d2|e4 B2|A4 B2|G6|F4 E2|E6-|E4||

